img/filter.svg

<svg width="16" height="16" viewBox="0 0 16 16" fill="none" xmlns="http://www.w3.org/2000/svg">
<path d="M6.33333 16C6.27667 16 6.22 15.986 6.16933 15.9567C6.06467 15.8973 6 15.7867 6 15.6667V8.932C6 8.646 5.87733 8.374 5.664 8.18467L0.558667 3.64933C0.204 3.33533 0 2.87933 0 2.4V1C0 0.448667 0.448667 0 1 0H15C15.5513 0 16 0.448667 16 1V2.4C16 2.87933 15.796 3.33533 15.4407 3.65L10.336 8.18533C10.1227 8.37467 10 8.64667 10 8.932V13.2887C10 13.6373 9.81467 13.966 9.51467 14.146L6.504 15.952C6.452 15.984 6.39267 16 6.33333 16ZM1 0.666667C0.816667 0.666667 0.666667 0.816 0.666667 1V2.4C0.666667 2.68867 0.788667 2.96267 1.00067 3.15L6.10667 7.686C6.462 8.002 6.66667 8.456 6.66667 8.932V15.078L9.172 13.5753C9.27133 13.5153 9.33333 13.4053 9.33333 13.2893V8.93267C9.33333 8.45667 9.538 8.002 9.89333 7.68667L14.9987 3.15133C15.2113 2.96267 15.3333 2.68867 15.3333 2.4V1C15.3333 0.816 15.1833 0.666667 15 0.666667H1Z" fill="#FF7010"/>
</svg>

<svg width="16" height="16" fill="none" xmlns="http://www.w3.org/2000/svg"><path d="M6.333 16A.334.334 0 0 1 6 15.667V8.932a1 1 0 0 0-.336-.747L.559 3.649A1.669 1.669 0 0 1 0 2.4V1c0-.551.449-1 1-1h14c.551 0 1 .449 1 1v1.4c0 .48-.204.935-.56 1.25l-5.104 4.535a1 1 0 0 0-.336.747v4.357c0 .348-.185.677-.485.857l-3.011 1.806a.326.326 0 0 1-.17.048ZM1 .667A.334.334 0 0 0 .667 1v1.4A1 1 0 0 0 1 3.15l5.106 4.536c.355.316.56.77.56 1.246v6.146l2.505-1.503c.1-.06.161-.17.161-.286V8.933c0-.476.205-.931.56-1.246L15 3.15c.212-.188.334-.462.334-.751V1A.334.334 0 0 0 15 .667H1Z" fill="#FF7010"/></svg>
